Gruvbox-Plus-Dark/actions/22/edit-table-insert-row-below.svg

<svg xmlns="http://www.w3.org/2000/svg" width="22" height="22" viewBox="0 0 22 22">
 <defs>
  <style id="current-color-scheme" type="text/css">
   .ColorScheme-Text { color:#ebdbb2; } .ColorScheme-Highlight { color:#458588; }
  </style>
 </defs>
 <path style="fill:currentColor" class="ColorScheme-Text" d="M 1 1 L 1 9 L 3 9 L 3 7 L 5 7 L 5 9 L 7 9 L 7 7 L 9 7 L 9 9 L 11 9 L 11 7 L 13 7 L 13 9 L 15 9 L 15 1 L 1 1 z M 3 3 L 5 3 L 5 5 L 3 5 L 3 3 z M 7 3 L 9 3 L 9 5 L 7 5 L 7 3 z M 11 3 L 13 3 L 13 5 L 11 5 L 11 3 z M 2 10 L 2 11 L 3.28125 11 L 3 11.28125 L 2 12.28125 L 2 13.71875 L 3 12.71875 L 4.71875 11 L 7.28125 11 L 7 11.28125 L 6 12.28125 L 4.28125 14 L 2 14 L 2 15 L 9 15 L 9 13.28125 L 8.28125 14 L 5.71875 14 L 6 13.71875 L 7 12.71875 L 8.71875 11 L 9 11 L 9 10 L 2 10 z M 10 11 L 12 15 L 14 11 L 10 11 z" transform="translate(3 3)"/>
</svg>

<svg width="22" height="22" version="1.1" viewBox="0 0 22 22" xmlns="http://www.w3.org/2000/svg">
  <defs>
    <style type="text/css">.ColorScheme-Text { color:#ebdbb2; } .ColorScheme-Highlight { color:#458588; }</style>
  </defs>
  <path class="ColorScheme-Text" transform="translate(3 3)" d="m1 1v8h2v-2h2v2h2v-2h2v2h2v-2h2v2h2v-8h-14zm2 2h2v2h-2v-2zm4 0h2v2h-2v-2zm4 0h2v2h-2v-2zm-9 7v1h1.281l-1.281 1.281v1.438l2.719-2.719h2.562l-3 3h-2.281v1h7v-1.719l-0.7188 0.7188h-2.562l3-3h0.2812v-1h-7zm8 1 2 4 2-4h-4z" fill="currentColor"/>
</svg>
